assets/img/braze_icons/spacing-width-01.svg

<svg fill="none" height="24" viewBox="0 0 24 24" width="24" xmlns="http://www.w3.org/2000/svg"><g fill="#801ed7"><path d="m3 2c.55229 0 1 .44772 1 1v18c0 .5523-.44772 1-1 1s-1-.4477-1-1v-18c0-.55228.44772-1 1-1z"/><path d="m21 2c.5523 0 1 .44772 1 1v18c0 .5523-.4477 1-1 1s-1-.4477-1-1v-18c0-.55228.4477-1 1-1z"/><path d="m7.86845 13 .9636 1.4454c.30635.4595.18218 1.0804-.27735 1.3868-.45953.3063-1.0804.1821-1.38675-.2774l-2-3c-.22393-.3359-.22393-.7735 0-1.1094l2-2.99999c.30635-.45953.92722-.58371 1.38675-.27735.45953.30635.5837.92722.27735 1.38675l-.96346 1.44519h8.26281l-.9635-1.44519c-.3063-.45953-.1821-1.0804.2774-1.38675.4595-.30636 1.0804-.18218 1.3867.27735l2 2.99999c.224.3359.224.7735 0 1.1094l-2 3c-.3063.4595-.9272.5837-1.3867.2774-.4595-.3064-.5837-.9273-.2774-1.3868l.9636-1.4454z"/></g></svg>

<svg width="24" height="24" viewBox="0 0 24 24" fill="none" xmlns="http://www.w3.org/2000/svg">
<path d="M3 2C3.55229 2 4 2.44772 4 3L4 21C4 21.5523 3.55228 22 3 22C2.44772 22 2 21.5523 2 21V3C2 2.44772 2.44772 2 3 2Z" fill="#801ED7"/>
<path d="M21 2C21.5523 2 22 2.44772 22 3V21C22 21.5523 21.5523 22 21 22C20.4477 22 20 21.5523 20 21V3C20 2.44772 20.4477 2 21 2Z" fill="#801ED7"/>
<path d="M7.86845 13L8.83205 14.4454C9.1384 14.9049 9.01423 15.5258 8.5547 15.8322C8.09517 16.1385 7.4743 16.0143 7.16795 15.5548L5.16795 12.5548C4.94402 12.2189 4.94402 11.7813 5.16795 11.4454L7.16795 8.44541C7.4743 7.98588 8.09517 7.8617 8.5547 8.16806C9.01423 8.47441 9.1384 9.09528 8.83205 9.55481L7.86859 11H16.1314L15.1679 9.55481C14.8616 9.09528 14.9858 8.47441 15.4453 8.16806C15.9048 7.8617 16.5257 7.98588 16.832 8.44541L18.832 11.4454C19.056 11.7813 19.056 12.2189 18.832 12.5548L16.832 15.5548C16.5257 16.0143 15.9048 16.1385 15.4453 15.8322C14.9858 15.5258 14.8616 14.9049 15.1679 14.4454L16.1315 13H7.86845Z" fill="#801ED7"/>
</svg>
